X: 061839
T: Firm Old Tune
S: "Roche Collection of Traditional Irish Music" [I/38/84]
L: 1/8
M: 6/8
R: jig
K: G
E | EFG ABc | BAG EDD | DGG DEE | DGG GED |
EFG ABc | BAG EDD | EFG AGE | EDD D2 :|
f | fed edB | Add d2f | fed edB | BAA A2f |
fed edB | A>dd cAG | EFG AGE | EDD D2 :|
